X: 106
T:Lancaster Hornpipe. WI.106
T:Swan's Hornpipe,aka. WI.106
T:Fox In The Dumps,aka. WI.106
M:C|
L:1/8
Q:180
C:Swan's Hornpipe,Fox In The Dumps,Exiseman's,aka
S:Wm Irwin, Folio MS, c1850. AGG's Transcription
R:Hornipe
O:England
A:Lake District
N:Also Exiseman's Hornpipe.
Z:vmp.Chris Partington.2005
K:F
cB|Acf2 f2ed|efga g2fe|fgaf bagf|gec2 cdcB|!
Acf2 f2ed|efga g2fg|afge fdcB|A2F2 F2:|!
|:((3cde)|fcAc FAga|(3gaf (3efd c2ba|gecA FAfa|gfed c2fe|!
dB (3BBB bagf|gfed c2 (3ccc |dBcA BGcB|A2F2 F2:|]
